public/images/founder-icon.svg

<svg height="58" viewBox="0 0 58 58" width="58" xmlns="http://www.w3.org/2000/svg"><path d="m27.05.02612872c4.2289543 0 8.0007085 2.66019634 9.42 6.64387128.2244723.61804133.3820393 1.25836679.47 1.91.0749296.46958895.1117165.94447368.11 1.42.0009689.3741618-.0190626.7480832-.06 1.12-.1181602 1.1000398-.422497 2.1719818-.9 3.17-.7465579 1.5649802-1.8872096 2.9089505-3.31 3.9-1.3167472.912821-2.8292208 1.500286-4.4132429 1.7166726l-.3667571.0433274v10.54l2.1-2.86c1.0987652-1.4978952 2.7478774-2.4976062 4.5841289-2.7789522s3.7090316.1787492 5.2058711 1.2789522c.2125143.1594561.3528379.3969267.39.66.0332943.2172941-.0060853.4382163-.1099838.6292411l-.0700162.1107589-3.55 4.84c-1.9112492 2.5996377-5.3421616 3.5473194-8.3042842 2.3267447l-.2457158-.1067447v3.41h10.18c-.0969161-.2555068-.1553563-.5235912-.1737438-.7954939l-.0062562-.2045061v-2c0-1.5976809 1.24892-2.9036609 2.8237272-2.9949073l.1762728-.0050927h14c1.5976809 0 2.9036609 1.24892 2.9949073 2.8237272l.0050927.1762728v2c0 1.5976809-1.24892 2.9036609-2.8237272 2.9949073l-.1762728.0050927h-.18c.0969161.2555068.1553563.5235912.1737438.7954939l.0062562.2045061v2c.0017373.2732644-.0369722.5449003-.1145518.8061485l-.0654482.1938515h.18c1.5976809 0 2.9036609 1.24892 2.9949073 2.8237272l.0050927.1762728v2c0 1.5976809-1.24892 2.9036609-2.8237272 2.9949073l-.1762728.0050927h-.18c.0969161.2555068.1553563.5235912.1737438.7954939l.0062562.2045061v2c0 1.5976809-1.24892 2.9036609-2.8237272 2.9949073l-.1762728.0050927h-33.19c-1.2645801-.0077761-2.3884892-.8077114-2.81-2-2.8696689 2.1274945-6.65628875 2.5626208-9.93373435 1.1415005-3.2774456-1.4211202-5.54790232-4.4826314-5.95626565-8.0315005-.04100692-.368565-.0610392-.7391622-.06003844-1.11.00726508-.3718892.04068113-.7428073.10003844-1.11-.00972764-.0763581-.00972764-.1536419 0-.23.07874522-.6835869.23991657-1.3551342.48-2 1.82692538-5.1779959 7.48719116-7.9143862 12.68-6.13.4350118-.299882.9403482-.4787925 1.4644074-.5205488l.2255926-.0094512h11v-3.15c-.7212388.2445907-1.478442.366284-2.24.36-.3618661-.0001609-.7230985-.0302636-1.08-.09-1.7397594-.2573332-3.3124529-1.166668-4.4027964-2.5373194l-.1772036-.2326806-3.55-4.84c-.1552559-.2132696-.2199531-.4792471-.18-.74.0371621-.2630733.1774857-.5005439.39-.66 1.4968395-1.100203 3.3696196-1.5602982 5.2058711-1.2789522 1.7396067.2665383 3.3112546 1.1778142 4.4061191 2.5466146l.1780098.2323376 1.45 2v-9.67c-4.6685785-.4918089-8.366587-4.164859-8.89-8.83-.0410069-.368565-.0610392-.7391622-.06-1.11.0076936-.36854705.0411082-.73610733.1-1.1-.0097276-.0763581-.0097276-.1536419 0-.23.0787452-.68358694.2399166-1.35513423.48-2 1.4192915-3.98367494 5.1910457-6.64387128 9.42-6.64387128zm-17.03 39.97752048c-3.38754562 0-6.40786142 2.1335891-7.54 5.3263508-.14173899.3908753-.24947772.7930511-.32211795 1.2020457l-.04788205.3079543v.28c-.04156317.291464-.06161734.5855919-.06.88-.02047923.2929759-.02047923.5870241 0 .88.45052086 4.0714795 3.90374601 7.1448499 8 7.1201496 3.0867852-.0029999 5.8965416-1.7814745 7.22-4.5701496.3886996-.7972807.6324962-1.6573409.72-2.54.0402321-.2949554.0602787-.5923135.06-.89.0155041-.3774032-.0012232-.7554411-.05-1.13-.0908253-.5276705-.2383465-1.0439948-.44-1.54-1.1321386-3.1927617-4.1524544-5.3263508-7.54-5.3263508zm29.67-.003678h-23.69c1.5982967 1.1740119 2.8071779 2.80095 3.47 4.6700288.2244723.6180413.3820393 1.2583668.47 1.91.0749296.469589.1117165.9444737.11 1.42-.0387597.3764385-.0988563.7503733-.18 1.12-.1181602 1.1000398-.422497 2.1719818-.9 3.17-.3756237.7889021-.8530225 1.525172-1.42 2.19l.22.79c.1245106.4452375.5379962.747082 1 .73h17.03l.0164319.000648c.0313943-.0002854.0625232-.0020385.0933095-.0052031l-.1097414.0045551c.0489857.0003494.0973384-.0028675.1447737-.0094365.0276276-.0031855.054703-.0081079.0814231-.0141082.0108169-.0030517.0222028-.0058101.0335182-.0087628.0265811-.0063356.0522796-.0141943.077555-.0230474.0102612-.0041846.020933-.0081195.0315234-.012231.0247566-.0090476.0484843-.019367.0717437-.03057.0129283-.0067731.0266476-.0137538.040189-.021041.0218288-.0112192.0425491-.0233792.0627974-.03626.0087559-.0061006.0177188-.0119993.0265834-.0180394.0239522-.0158065.0469757-.0330025.0692297-.0511632.0070547-.0062559.0146106-.0125978.0220728-.0190512.078479-.0674971.1461695-.1471769.2005238-.2367564.006803-.0115765.0134966-.0231073.0199685-.0347923.0370475-.066618.0668004-.1385816.0880983-.2147406l3.89-14c.0853182-.303727.0223065-.629905-.17-.88-.1909314-.248042-.486992-.3923716-.8-.3900288zm12.31 12.0000288h-12.25l-1.06 3.81-.0304955.0966596-.0395045.0933404h13.38c.5128358 0 .9355072-.3860402.9932723-.8833789l.0067277-.1166211v-2c0-.5522847-.4477153-1-1-1zm-42-10c.5522847 0 1 .4477153 1 1v1h1c.5522847 0 1 .4477153 1 1s-.4477153 1-1 1h-2.29c-.23816027.0478696-.40950124.2570765-.40950124.5s.17134097.4521304.40950124.5h1.29c.2255642.0013084.4440607.0788394.62.22 1.0093147.4574224 1.6013786 1.520507 1.4588403 2.6194312-.1425383 1.0989241-.9862264 1.9757814-2.0788403 2.1605688v1c0 .5522847-.4477153 1-1 1-.55228475 0-1-.4477153-1-1v-1h-1c-.55228475 0-1-.4477153-1-1s.44771525-1 1-1h2.64c.2381603-.0478696.4095012-.2570765.4095012-.5s-.1713409-.4521304-.4095012-.5h-.93c-.64982464-.0131263-1.2678034-.2839265-1.71791944-.7527973-.45011605-.4688709-.69547755-1.0973836-.68208056-1.7472027-.01383888-1.0786347.66843763-2.0435109 1.69-2.39v-1.11c0-.5522847.44771525-1 1-1zm45 4h-13.59l-1.11 4h14.7c.5128358 0 .9355072-.3860402.9932723-.8833789l.0067277-.1166211v-2c0-.5522847-.4477153-1-1-1zm-3-6h-9.48c.1922588.5034384.2404174 1.0488923.1414374 1.5755953l-.0514374.2244047-.61 2.2h10c.5128358 0 .9355072-.3860402.9932723-.8833789l.0067277-.1166211v-2c0-.5522847-.4477153-1-1-1zm3-6h-14c-.5128358 0-.9355072.3860402-.9932723.8833789l-.0067277.1166211v2c0 .5128358.3860402.9355072.8833789.9932723l.1166211.0067277h14c.5128358 0 .9355072-.3860402.9932723-.8833789l.0067277-.1166211v-2c0-.5522847-.4477153-1-1-1zm-37.9725817-6.8641243-.2174183.0941243 2.9 3.95c1.343885 1.8747137 3.7872899 2.57892 5.9114557 1.7330489l.2185443-.0930489-2.9-4c-1.3576814-1.8573378-3.7990105-2.5407428-5.9125817-1.6841243zm14.8268392 1.4961885-.1442575.1879358-2.9 3.95c2.089289.9632623 4.555005.3738774 5.9857425-1.4020642l.1442575-.1879358 2.9-3.95c-2.089289-.9632623-4.555005-.3738774-5.9857425 1.4020642zm-4.8342575-26.62841501c-3.3875456 0-6.4078614 2.13358906-7.54 5.32635081-.141739.39087526-.2494777.79305114-.322118 1.20204565l-.047882.30795435v.28c-.0415632.29146399-.0616173.58559188-.06.88-.003866.2941402.0128414.5881907.05.88.0954758.8843284.3388641 1.7463286.72 2.55 1.3256803 2.7883491 4.1375546 4.5649782 7.225 4.5649782s5.8993197-1.7766291 7.225-4.5649782c.3886996-.7972807.6324962-1.6573409.72-2.54.0402321-.2949554.0602787-.5923135.06-.89.0155041-.37740319-.0012232-.7554411-.05-1.13-.0908253-.52767046-.2383465-1.04399476-.44-1.54-1.1321386-3.19276175-4.1524544-5.32635081-7.54-5.32635081zm-.02 1.99635081c.5522847 0 1 .44771525 1 1v1h1c.5522847 0 1 .44771525 1 1s-.4477153 1-1 1h-2.29c-.2381603.04786962-.4095012.25707652-.4095012.5s.1713409.45213038.4095012.5h1.29c.2255642.0013084.4440607.07883941.62.22.8817131.41474261 1.4404964 1.3056699 1.43 2.28.0327059 1.2269198-.8404431 2.2917357-2.05 2.5v1c0 .5522847-.4477153 1-1 1s-1-.4477153-1-1v-1h-1c-.5522847 0-1-.4477153-1-1s.4477153-1 1-1h2.64c.2381603-.0478696.4095012-.2570765.4095012-.5s-.1713409-.4521304-.4095012-.5h-.93c-.6498246-.0131263-1.2678034-.2839265-1.7179194-.7527973-.4501161-.46887092-.6954776-1.09738359-.6820806-1.7472027-.0138389-1.0786347.6684376-2.04351095 1.69-2.39v-1.11c0-.55228475.4477153-1 1-1z" fill="#787e8c"/></svg>

<svg xmlns="http://www.w3.org/2000/svg" xmlns:xlink="http://www.w3.org/1999/xlink" width="58px" height="58px" viewBox="0 0 58 58" version="1.1">
    <title>Icons/Founder-website-1</title>
    <g id="Icons/Founder-website-1" stroke="none" stroke-width="1" fill="none" fill-rule="evenodd">
        <path d="M27.05,0.0261287222 C31.2789543,0.0261287222 35.0507085,2.68632506 36.47,6.67 C36.6944723,7.28804133 36.8520393,7.92836679 36.94,8.58 C37.0149296,9.04958895 37.0517165,9.52447368 37.05,10 C37.0509689,10.3741618 37.0309374,10.7480832 36.99,11.12 C36.8718398,12.2200398 36.567503,13.2919818 36.09,14.29 C35.3434421,15.8549802 34.2027904,17.1989505 32.78,18.19 C31.4632528,19.102821 29.9507792,19.690286 28.3667571,19.9066726 L28,19.95 L28,30.49 L30.1,27.63 C31.1987652,26.1321048 32.8478774,25.1323938 34.6841289,24.8510478 C36.5203804,24.5697018 38.3931605,25.029797 39.89,26.13 C40.1025143,26.2894561 40.2428379,26.5269267 40.28,26.79 C40.3132943,27.0072941 40.2739147,27.2282163 40.1700162,27.4192411 L40.1,27.53 L36.55,32.37 C34.6387508,34.9696377 31.2078384,35.9173194 28.2457158,34.6967447 L28,34.59 L28,38 L38.18,38 C38.0830839,37.7444932 38.0246437,37.4764088 38.0062562,37.2045061 L38,37 L38,35 C38,33.4023191 39.24892,32.0963391 40.8237272,32.0050927 L41,32 L55,32 C56.5976809,32 57.9036609,33.24892 57.9949073,34.8237272 L58,35 L58,37 C58,38.5976809 56.75108,39.9036609 55.1762728,39.9949073 L55,40 L54.82,40 C54.9169161,40.2555068 54.9753563,40.5235912 54.9937438,40.7954939 L55,41 L55,43 C55.0017373,43.2732644 54.9630278,43.5449003 54.8854482,43.8061485 L54.82,44 L55,44 C56.5976809,44 57.9036609,45.24892 57.9949073,46.8237272 L58,47 L58,49 C58,50.5976809 56.75108,51.9036609 55.1762728,51.9949073 L55,52 L54.82,52 C54.9169161,52.2555068 54.9753563,52.5235912 54.9937438,52.7954939 L55,53 L55,55 C55,56.5976809 53.75108,57.9036609 52.1762728,57.9949073 L52,58 L18.81,58 C17.5454199,57.9922239 16.4215108,57.1922886 16,56 C13.1303311,58.1274945 9.34371125,58.5626208 6.06626565,57.1415005 C2.78882005,55.7203803 0.518363334,52.6588691 0.11,49.11 C0.0689930816,48.741435 0.0489607975,48.3708378 0.04996156,48 C0.0572266416,47.6281108 0.0906426875,47.2571927 0.15,46.89 C0.140272361,46.8136419 0.140272361,46.7363581 0.15,46.66 C0.228745217,45.9764131 0.389916568,45.3048658 0.63,44.66 C2.45692538,39.4820041 8.11719116,36.7456138 13.31,38.53 C13.7450118,38.230118 14.2503482,38.0512075 14.7744074,38.0094512 L15,38 L26,38 L26,34.85 C25.2787612,35.0945907 24.521558,35.216284 23.76,35.21 C23.3981339,35.2098391 23.0369015,35.1797364 22.68,35.12 C20.9402406,34.8626668 19.3675471,33.953332 18.2772036,32.5826806 L18.1,32.35 L14.55,27.51 C14.3947441,27.2967304 14.3300469,27.0307529 14.37,26.77 C14.4071621,26.5069267 14.5474857,26.2694561 14.76,26.11 C16.2568395,25.009797 18.1296196,24.5497018 19.9658711,24.8310478 C21.7054778,25.0975861 23.2771257,26.008862 24.3719902,27.3776624 L24.55,27.61 L26,29.61 L26,19.94 C21.3314215,19.4481911 17.633413,15.775141 17.11,11.11 C17.0689931,10.741435 17.0489608,10.3708378 17.05,10 C17.0576936,9.63145295 17.0911082,9.26389267 17.15,8.9 C17.1402724,8.8236419 17.1402724,8.7463581 17.15,8.67 C17.2287452,7.98641306 17.3899166,7.31486577 17.63,6.67 C19.0492915,2.68632506 22.8210457,0.0261287222 27.05,0.0261287222 Z M10.02,40.0036492 C6.63245438,40.0036492 3.61213858,42.1372383 2.48,45.33 C2.33826101,45.7208753 2.23052228,46.1230511 2.15788205,46.5320457 L2.11,46.84 L2.11,47.12 C2.06843683,47.411464 2.04838266,47.7055919 2.05,48 C2.02952077,48.2929759 2.02952077,48.5870241 2.05,48.88 C2.50052086,52.9514795 5.95374601,56.0248499 10.05,56.0001496 C13.1367852,55.9971497 15.9465416,54.2186751 17.27,51.43 C17.6586996,50.6327193 17.9024962,49.7726591 17.99,48.89 C18.0302321,48.5950446 18.0502787,48.2976865 18.05,48 C18.0655041,47.6225968 18.0487768,47.2445589 18,46.87 C17.9091747,46.3423295 17.7616535,45.8260052 17.56,45.33 C16.4278614,42.1372383 13.4075456,40.0036492 10.02,40.0036492 Z M39.69,39.9999712 L16,39.9999712 C17.5982967,41.1739831 18.8071779,42.8009212 19.47,44.67 C19.6944723,45.2880413 19.8520393,45.9283668 19.94,46.58 C20.0149296,47.049589 20.0517165,47.5244737 20.05,48 C20.0112403,48.3764385 19.9511437,48.7503733 19.87,49.12 C19.7518398,50.2200398 19.447503,51.2919818 18.97,52.29 C18.5943763,53.0789021 18.1169775,53.815172 17.55,54.48 L17.55,54.48 L17.77,55.27 C17.8945106,55.7152375 18.3079962,56.017082 18.77,56 L18.77,56 L35.8,56 L35.8164319,56.000648 C35.8478262,56.0003626 35.8789551,55.9986095 35.9097414,55.9954449 L35.8,56 C35.8489857,56.0003494 35.8973384,55.9971325 35.9447737,55.9905635 C35.9724013,55.987378 35.9994767,55.9824556 36.0261968,55.9764553 C36.0370137,55.9734036 36.0483996,55.9706452 36.059715,55.9676925 C36.0862961,55.9613569 36.1119946,55.9534982 36.13727,55.9446451 C36.1475312,55.9404605 36.158203,55.9365256 36.1687934,55.9324141 C36.19355,55.9233665 36.2172777,55.9130471 36.2405371,55.9018441 C36.2534654,55.895071 36.2671847,55.8880903 36.2807261,55.8808031 C36.3025549,55.8695839 36.3232752,55.8574239 36.3435235,55.8445431 C36.3522794,55.8384425 36.3612423,55.8325438 36.3701069,55.8265037 C36.3940591,55.8106972 36.4170826,55.7935012 36.4393366,55.7753405 C36.4463913,55.7690846 36.4539472,55.7627427 36.4614094,55.7562893 C36.5398884,55.6887922 36.6075789,55.6091124 36.6619332,55.5195329 C36.6687362,55.5079564 36.6754298,55.4964256 36.6819017,55.4847406 C36.7189492,55.4181226 36.7487021,55.346159 36.77,55.27 L36.77,55.27 L40.66,41.27 C40.7453182,40.966273 40.6823065,40.640095 40.49,40.39 C40.2990686,40.141958 40.003008,39.9976284 39.69,39.9999712 L39.69,39.9999712 Z M52,52 L39.75,52 L38.69,55.81 L38.6595045,55.9066596 L38.6595045,55.9066596 L38.62,56 L52,56 L52,56 C52.5128358,56 52.9355072,55.6139598 52.9932723,55.1166211 L53,55 L53,53 C53,52.4477153 52.5522847,52 52,52 Z M10,42 C10.5522847,42 11,42.4477153 11,43 L11,44 L12,44 C12.5522847,44 13,44.4477153 13,45 C13,45.5522847 12.5522847,46 12,46 L9.71,46 C9.47183973,46.0478696 9.30049876,46.2570765 9.30049876,46.5 C9.30049876,46.7429235 9.47183973,46.9521304 9.71,47 L11,47 C11.2255642,47.0013084 11.4440607,47.0788394 11.62,47.22 C12.6293147,47.6774224 13.2213786,48.740507 13.0788403,49.8394312 C12.936302,50.9383553 12.0926139,51.8152126 11,52 L11,53 C11,53.5522847 10.5522847,54 10,54 C9.44771525,54 9,53.5522847 9,53 L9,52 L8,52 C7.44771525,52 7,51.5522847 7,51 C7,50.4477153 7.44771525,50 8,50 L10.64,50 C10.8781603,49.9521304 11.0495012,49.7429235 11.0495012,49.5 C11.0495012,49.2570765 10.8781603,49.0478696 10.64,49 L9.71,49 C9.06017536,48.9868737 8.4421966,48.7160735 7.99208056,48.2472027 C7.54196451,47.7783318 7.29660301,47.1498191 7.31,46.5 C7.29616112,45.4213653 7.97843763,44.4564891 9,44.11 L9,43 C9,42.4477153 9.44771525,42 10,42 Z M55,46 L41.41,46 L40.3,50 L55,50 L55,50 C55.5128358,50 55.9355072,49.6139598 55.9932723,49.1166211 L56,49 L56,47 C56,46.4477153 55.5522847,46 55,46 Z M52,40 L42.52,40 C42.7122588,40.5034384 42.7604174,41.0488923 42.6614374,41.5755953 L42.61,41.8 L42,44 L52,44 L52,44 C52.5128358,44 52.9355072,43.6139598 52.9932723,43.1166211 L53,43 L53,41 C53,40.4477153 52.5522847,40 52,40 Z M55,34 L41,34 C40.4871642,34 40.0644928,34.3860402 40.0067277,34.8833789 L40,35 L40,37 C40,37.5128358 40.3860402,37.9355072 40.8833789,37.9932723 L41,38 L55,38 L55,38 C55.5128358,38 55.9355072,37.6139598 55.9932723,37.1166211 L56,37 L56,35 C56,34.4477153 55.5522847,34 55,34 Z M17.0274183,27.1358757 L16.81,27.23 L19.71,31.18 C21.053885,33.0547137 23.4972899,33.75892 25.6214557,32.9130489 L25.84,32.82 L22.94,28.82 C21.5823186,26.9626622 19.1409895,26.2792572 17.0274183,27.1358757 Z M31.8542575,28.6320642 L31.71,28.82 L28.81,32.77 C30.899289,33.7332623 33.365005,33.1438774 34.7957425,31.3679358 L34.94,31.18 L37.84,27.23 C35.750711,26.2667377 33.284995,26.8561226 31.8542575,28.6320642 Z M27.02,2.00364919 C23.6324544,2.00364919 20.6121386,4.13723825 19.48,7.33 C19.338261,7.72087526 19.2305223,8.12305114 19.157882,8.53204565 L19.11,8.84 L19.11,9.12 C19.0684368,9.41146399 19.0483827,9.70559188 19.05,10 C19.046134,10.2941402 19.0628414,10.5881907 19.1,10.88 C19.1954758,11.7643284 19.4388641,12.6263286 19.82,13.43 C21.1456803,16.2183491 23.9575546,17.9949782 27.045,17.9949782 C30.1324454,17.9949782 32.9443197,16.2183491 34.27,13.43 C34.6586996,12.6327193 34.9024962,11.7726591 34.99,10.89 C35.0302321,10.5950446 35.0502787,10.2976865 35.05,10 C35.0655041,9.62259681 35.0487768,9.2445589 35,8.87 C34.9091747,8.34232954 34.7616535,7.82600524 34.56,7.33 C33.4278614,4.13723825 30.4075456,2.00364919 27.02,2.00364919 Z M27,4 C27.5522847,4 28,4.44771525 28,5 L28,6 L29,6 C29.5522847,6 30,6.44771525 30,7 C30,7.55228475 29.5522847,8 29,8 L26.71,8 C26.4718397,8.04786962 26.3004988,8.25707652 26.3004988,8.5 C26.3004988,8.74292348 26.4718397,8.95213038 26.71,9 L28,9 C28.2255642,9.0013084 28.4440607,9.07883941 28.62,9.22 C29.5017131,9.63474261 30.0604964,10.5256699 30.05,11.5 C30.0827059,12.7269198 29.2095569,13.7917357 28,14 L28,15 C28,15.5522847 27.5522847,16 27,16 C26.4477153,16 26,15.5522847 26,15 L26,14 L25,14 C24.4477153,14 24,13.5522847 24,13 C24,12.4477153 24.4477153,12 25,12 L27.64,12 C27.8781603,11.9521304 28.0495012,11.7429235 28.0495012,11.5 C28.0495012,11.2570765 27.8781603,11.0478696 27.64,11 L26.71,11 C26.0601754,10.9868737 25.4421966,10.7160735 24.9920806,10.2472027 C24.5419645,9.77833178 24.296603,9.14981911 24.31,8.5 C24.2961611,7.4213653 24.9784376,6.45648905 26,6.11 L26,5 C26,4.44771525 26.4477153,4 27,4 Z" id="Combined-Shape" fill="#787E8C" fill-rule="nonzero"/>
    </g>
</svg>
